;Generated by Cura LulzBot Edition GCodeWriter Version: 3.2.27
;FLAVOR:Marlin
;TIME:19251
;Filament used: 14.7054m
;Layer height: 0.38
;Generated with Cura_SteamEngine 3.2.27
M82 ;absolute extrusion mode
;This G-Code has been generated specifically for the LulzBot Mini with standard extruder
M75 ; Start GLCD Timer
G26 ; clear potential 'probe fail' condition
G21 ; set units to Millimetres
M107 ; disable fans
M420 S0 ; disable leveling matrix
G90 ; absolute positioning
M82 ; set extruder to absolute mode
G92 E0 ; set extruder position to 0
M140 S60 ; start bed heating up
G28 ; home all axes
G0 X0 Y187 Z156 F200 ; move away from endstops
M109 R140 ;
G1 E-30 F75 ; retract filament
M109 R140 ; wait for extruder to reach wiping temp
G1 X45 Y173 F11520 ; move above wiper pad
G1 Z0 F1200 ; push nozzle into wiper
G1 X42 Y173 Z-.5 F4000             ; wiping
G1 X52 Y171 Z-.5 F4000             ; wiping
G1 X42 Y173 Z0 F4000               ; wiping
G1 X52 Y171 F4000                  ; wiping
G1 X42 Y173 F4000                  ; wiping
G1 X52 Y171 F4000                  ; wiping
G1 X42 Y173 F4000                  ; wiping
G1 X52 Y171 F4000                  ; wiping
G1 X57 Y173 F4000                  ; wiping
G1 X77 Y171 F4000                  ; wiping
G1 X57 Y173 F4000                  ; wiping
G1 X77 Y171 F4000                  ; wiping
G1 X57 Y173 F4000                  ; wiping
G1 X87 Y171 F4000                  ; wiping
G1 X77 Y173 F4000                  ; wiping
G1 X97 Y171 F4000                  ; wiping
G1 X77 Y173 F4000                  ; wiping
G1 X97 Y171 F4000                  ; wiping
G1 X77 Y173 F4000                  ; wiping
G1 X97 Y171 F4000                  ; wiping
G1 X107 Y173 F4000                 ; wiping
G1 X97 Y171 F4000                  ; wiping
G1 X107 Y173 F4000                 ; wiping
G1 X97 Y171 F4000                  ; wiping
G1 X107 Y173 F4000                 ; wiping
G1 X112 Y171 Z-0.5 F1000           ; wiping
G1 Z10 ; raise extruder
G28 X0 Y0 ; home X and Y
G0 X0 Y187 F200 ; move away from endstops
M109 R140 ; wait for extruder to reach probe temp
M204 S300 ; set probing acceleration
G29 ; start auto-leveling sequence
M420 S1              ; enable leveling matrix
M425 Z			     ; use measured Z backlash for compensation
M425 Z F0		     ; turn off measured Z backlash compensation. (if activated in the quality settings, this command will automatically be ignored)
M204 S2000 ; restore standard acceleration
G28 X0 Y0 ; re-home to account for build variance of earlier mini builds
G0 X0 Y187 F200 ; move away from endstops
G0 Y152 F4000 ; move in front of wiper pad
G4 S1 ; pause
M400 ; wait for moves to finish
M117 Heating... ; progress indicator message on LCD
M109 R205 ; wait for extruder to reach printing temp
M190 S60 ; wait for bed to reach printing temp
G1 Z2 E0 F75 ; prime tiny bit of filament into the nozzle
M117 Mini Printing... ; progress indicator message on LCD

M221 S100
;LAYER_COUNT:107
;LAYER:0
M107
G0 F2625 X5.185 Y7.336 Z0.425
;TYPE:SKIRT
G1 F900 X5.937 Y6.942 E0.02828
G1 X6.47 Y6.708 E0.04767
G1 X7.249 Y6.509 E0.07445
G1 X8.508 Y6.311 E0.1169
G1 X9.168 Y6.259 E0.13896
G1 X104.95 Y6.257 E3.32949
G1 X110.403 Y6.103 E3.5112
G1 X115.803 Y5.644 E3.69173
G1 X122.592 Y4.638 E3.92034
G1 X123.216 Y4.592 E3.94118
G1 X127.01 Y4.593 E4.06756
G1 X127.591 Y4.633 E4.08696
G1 X128.162 Y4.752 E4.10639
G1 X128.711 Y4.949 E4.12582
G1 X129.227 Y5.218 E4.1452
G1 X129.702 Y5.555 E4.1646
G1 X130.127 Y5.955 E4.18405
G1 X130.566 Y6.517 E4.2078
G1 X132.292 Y9.157 E4.31287
G1 X135.459 Y13.563 E4.49361
G1 X138.871 Y17.786 E4.67446
G1 X142.527 Y21.819 E4.85578
G1 X144.378 Y23.696 E4.94359
G1 X147.7 Y26.827 E5.09565
G1 X148.096 Y27.255 E5.11508
G1 X148.429 Y27.733 E5.13448
G1 X148.694 Y28.252 E5.15389
G1 X148.885 Y28.802 E5.17329
G1 X149 Y29.374 E5.19272
G1 X149.035 Y29.921 E5.21098
G1 X149.034 Y34.237 E5.35475
G1 X148.996 Y34.806 E5.37374
G1 X148.025 Y41.971 E5.61459
G1 X147.647 Y47.355 E5.79438
G1 X147.549 Y56.119 E6.08633
G1 X147.542 Y56.316 E6.0929
G1 X147.374 Y59.237 E6.19036
G1 X147.298 Y64.699 E6.37231
G1 X147.528 Y70.111 E6.55275
G1 X148.027 Y75.509 E6.73333
G1 X148.045 Y75.904 E6.7465
G1 X148.035 Y85.725 E7.07364
G1 X147.969 Y86.467 E7.09846
G1 X147.24 Y90.554 E7.23674
G1 X146.539 Y95.955 E7.41816
G1 X146.147 Y101.362 E7.59874
G1 X146.062 Y106.767 E7.77881
G1 X146.282 Y112.168 E7.95887
G1 X146.808 Y117.551 E8.13903
G1 X147.98 Y124.701 E8.38038
G1 X148.036 Y125.39 E8.4034
G1 X148.035 Y129.691 E8.54667
G1 X147.995 Y130.272 E8.56607
G1 X147.876 Y130.843 E8.5855
G1 X147.68 Y131.392 E8.60492
G1 X147.41 Y131.908 E8.62432
G1 X147.073 Y132.383 E8.64372
G1 X146.673 Y132.808 E8.66316
G1 X146.22 Y133.174 E8.68256
G1 X145.72 Y133.474 E8.70198
G1 X145.184 Y133.703 E8.7214
G1 X144.431 Y133.891 E8.74725
G1 X140.672 Y134.469 E8.87393
G1 X135.328 Y135.546 E9.05552
G1 X132.778 Y136.173 E9.143
G1 X127.531 Y137.701 E9.32504
G1 X122.424 Y139.509 E9.5055
G1 X117.428 Y141.603 E9.68594
G1 X112.563 Y143.972 E9.86619
G1 X107.84 Y146.613 E10.04644
G1 X103.246 Y149.533 E10.22776
G1 X99.099 Y152.493 E10.39748
G1 X98.603 Y152.798 E10.41688
G1 X98.069 Y153.033 E10.43631
G1 X97.509 Y153.192 E10.4557
G1 X96.931 Y153.273 E10.47514
G1 X96.636 Y153.284 E10.48498
G1 X56.333 Y153.342 E11.82748
G1 X53.675 Y153.455 E11.9161
G1 X49.591 Y153.727 E12.05244
G1 X49.307 Y153.736 E12.06191
G1 X10.631 Y153.726 E13.35022
G1 X10.05 Y153.686 E13.36962
G1 X9.479 Y153.567 E13.38905
G1 X8.93 Y153.37 E13.40848
G1 X8.414 Y153.101 E13.42786
G1 X7.939 Y152.764 E13.44726
G1 X7.604 Y152.458 E13.46238
G1 X7.344 Y152.194 E13.47472
G1 X6.964 Y151.752 E13.49413
G1 X6.649 Y151.262 E13.51354
G1 X6.404 Y150.733 E13.53296
G1 X6.233 Y150.176 E13.55237
G1 X6.156 Y149.746 E13.56692
G1 X5.576 Y145.171 E13.72053
G1 X4.612 Y139.781 E13.90292
G1 X4.03 Y137.174 E13.9919
G1 X3.382 Y134.608 E14.08006
G1 X1.27 Y127.734 E14.3196
G1 X1.138 Y127.166 E14.33902
G1 X1.087 Y126.669 E14.35567
G1 X0.877 Y121.795 E14.51817
G1 X0.875 Y121.498 E14.52806
G1 X1.073 Y114.11 E14.77425
G1 X1.128 Y93.003 E15.47733
G1 X1.139 Y92.714 E15.48697
G1 X1.53 Y87.183 E15.67167
G1 X1.616 Y83.106 E15.8075
G1 X1.648 Y13.329 E18.1318
G1 X1.693 Y12.714 E18.15234
G1 X1.772 Y12.176 E18.17045
G1 X1.896 Y11.606 E18.18989
G1 X2.034 Y11.207 E18.20395
G1 X2.328 Y10.476 E18.23019
G1 X2.582 Y9.952 E18.24959
G1 X2.876 Y9.505 E18.26741
G1 X3.355 Y8.869 E18.29393
G1 X3.737 Y8.429 E18.31334
G1 X4.098 Y8.105 E18.3295
G1 X4.505 Y7.78 E18.34685
G1 X5.185 Y7.336 E18.3739
G0 F2625 X5.417 Y7.779
G1 F900 X6.169 Y7.385 E18.40218
G1 X6.671 Y7.167 E18.42041
G1 X7.326 Y7.003 E18.4429
G1 X8.585 Y6.805 E18.48536
G1 X9.168 Y6.759 E18.50484
G1 X104.964 Y6.757 E21.69584
G1 X110.423 Y6.603 E21.87775
G1 X115.854 Y6.141 E22.05931
G1 X122.665 Y5.132 E22.28867
G1 X123.216 Y5.092 E22.30707
G1 X127.01 Y5.093 E22.43345
G1 X127.556 Y5.133 E22.45168
G1 X128.09 Y5.252 E22.46991
G1 X128.601 Y5.448 E22.48814
G1 X129.079 Y5.716 E22.50639
G1 X129.512 Y6.05 E22.52461
G1 X129.892 Y6.444 E22.54284
G1 X130.148 Y6.791 E22.55721
G1 X131.876 Y9.434 E22.66239
G1 X135.066 Y13.872 E22.84445
G1 X138.491 Y18.11 E23.02596
G1 X142.165 Y22.164 E23.2082
G1 X144.032 Y24.058 E23.29679
G1 X147.357 Y27.191 E23.44897
G1 X147.727 Y27.594 E23.46719
G1 X148.034 Y28.048 E23.48545
G1 X148.272 Y28.54 E23.50366
G1 X148.436 Y29.063 E23.52191
G1 X148.522 Y29.603 E23.54013
G1 X148.535 Y29.921 E23.55073
G1 X148.534 Y34.237 E23.6945
G1 X148.5 Y34.739 E23.71126
G1 X147.528 Y41.915 E23.95248
G1 X147.147 Y47.332 E24.13336
G1 X147.049 Y56.114 E24.42591
G1 X147.043 Y56.288 E24.43171
G1 X146.874 Y59.225 E24.52971
G1 X146.797 Y64.695 E24.71193
G1 X147.03 Y70.159 E24.89411
G1 X147.529 Y75.555 E25.07462
G1 X147.545 Y75.904 E25.08625
G1 X147.535 Y85.725 E25.41339
G1 X147.477 Y86.38 E25.4353
G1 X146.744 Y90.487 E25.57427
G1 X146.041 Y95.908 E25.75635
G1 X145.649 Y101.319 E25.93707
G1 X145.563 Y106.78 E26.119
G1 X145.784 Y112.218 E26.30029
G1 X146.31 Y117.605 E26.48059
G1 X147.487 Y124.782 E26.72285
G1 X147.536 Y125.39 E26.74317
G1 X147.535 Y129.691 E26.88643
G1 X147.495 Y130.237 E26.90467
G1 X147.376 Y130.771 E26.92289
G1 X147.18 Y131.282 E26.94112
G1 X146.912 Y131.759 E26.95935
G1 X146.578 Y132.193 E26.97759
G1 X146.184 Y132.573 E26.99583
G1 X145.738 Y132.891 E27.01407
G1 X145.252 Y133.141 E27.03228
G1 X144.734 Y133.318 E27.05051
G1 X144.355 Y133.396 E27.0634
G1 X140.607 Y133.973 E27.18972
G1 X135.227 Y135.057 E27.37253
G1 X132.635 Y135.694 E27.46144
G1 X127.382 Y137.224 E27.64369
G1 X122.244 Y139.043 E27.82525
G1 X117.21 Y141.152 E28.00705
G1 X112.331 Y143.529 E28.18784
G1 X107.592 Y146.178 E28.36868
G1 X102.969 Y149.117 E28.55116
G1 X98.809 Y152.086 E28.7214
G1 X98.341 Y152.371 E28.73966
G1 X97.837 Y152.584 E28.75788
G1 X97.307 Y152.722 E28.77613
G1 X96.635 Y152.784 E28.79861
G1 X56.335 Y152.842 E30.14101
G1 X53.618 Y152.957 E30.2316
G1 X49.557 Y153.228 E30.36717
G1 X49.307 Y153.236 E30.37551
G1 X10.631 Y153.226 E31.66382
G1 X10.085 Y153.186 E31.68205
G1 X9.551 Y153.067 E31.70028
G1 X9.04 Y152.871 E31.71851
G1 X8.562 Y152.603 E31.73676
G1 X7.96 Y152.107 E31.76274
G1 X7.7 Y151.843 E31.77509
G1 X7.346 Y151.426 E31.79331
G1 X7.055 Y150.962 E31.81155
G1 X6.836 Y150.461 E31.82977
G1 X6.652 Y149.683 E31.8564
G1 X6.069 Y145.08 E32.01095
G1 X5.106 Y139.7 E32.19301
G1 X4.523 Y137.089 E32.28212
G1 X3.858 Y134.455 E32.37261
G1 X1.748 Y127.587 E32.61194
G1 X1.626 Y127.054 E32.63016
G1 X1.586 Y126.647 E32.64378
G1 X1.376 Y121.773 E32.80628
G1 X1.374 Y121.511 E32.81501
G1 X1.573 Y114.083 E33.06253
G1 X1.628 Y93.004 E33.76468
G1 X1.637 Y92.75 E33.77315
G1 X2.03 Y87.19 E33.95882
G1 X2.116 Y83.117 E34.09452
G1 X2.148 Y13.329 E36.41918
G1 X2.188 Y12.786 E36.43732
G1 X2.267 Y12.248 E36.45543
G1 X2.386 Y11.714 E36.47366
G1 X2.498 Y11.394 E36.48495
G1 X2.792 Y10.663 E36.51119
G1 X3.033 Y10.171 E36.52944
G1 X3.276 Y9.806 E36.54405
G1 X3.755 Y9.17 E36.57057
G1 X4.115 Y8.758 E36.5888
G1 X4.41 Y8.496 E36.60194
G1 X4.817 Y8.171 E36.61929
G1 X5.417 Y7.779 E36.64316
G0 F2625 X5.649 Y8.222
G1 F900 X6.401 Y7.828 E36.67144
G1 X6.869 Y7.628 E36.68839
G1 X7.404 Y7.496 E36.70675
G1 X8.663 Y7.298 E36.7492
G1 X9.168 Y7.259 E36.76608
G1 X104.942 Y7.257 E39.95634
G1 X110.481 Y7.1 E40.14092
G1 X115.907 Y6.639 E40.32232
G1 X122.739 Y5.627 E40.55237
G1 X123.216 Y5.592 E40.56831
G1 X127.01 Y5.593 E40.69469
G1 X127.518 Y5.633 E40.71166
G1 X128.013 Y5.752 E40.72862
G1 X128.484 Y5.947 E40.7456
G1 X128.918 Y6.213 E40.76255
G1 X129.306 Y6.544 E40.77954
G1 X129.729 Y7.065 E40.8019
G1 X131.456 Y9.707 E40.90704
G1 X134.666 Y14.173 E41.09024
G1 X138.109 Y18.434 E41.27272
G1 X141.804 Y22.51 E41.45598
G1 X143.687 Y24.419 E41.5453
G1 X147.014 Y27.555 E41.69759
G1 X147.356 Y27.932 E41.71455
G1 X147.635 Y28.359 E41.73154
G1 X147.844 Y28.823 E41.74849
G1 X147.978 Y29.315 E41.76548
G1 X148.035 Y29.921 E41.78575
G1 X148.034 Y34.237 E41.92952
G1 X148.005 Y34.672 E41.94404
G1 X147.029 Y41.875 E42.18617
G1 X146.647 Y47.308 E42.36759
G1 X146.549 Y56.108 E42.66074
G1 X146.544 Y56.259 E42.66577
G1 X146.374 Y59.212 E42.7643
G1 X146.297 Y64.71 E42.94746
G1 X146.531 Y70.185 E43.13
G1 X147.031 Y75.601 E43.31118
G1 X147.045 Y75.903 E43.32125
G1 X147.035 Y85.724 E43.64839
G1 X146.984 Y86.292 E43.66739
G1 X146.251 Y90.4 E43.80639
G1 X145.543 Y95.858 E43.98972
G1 X145.149 Y101.292 E44.1712
G1 X145.062 Y106.792 E44.35443
G1 X145.284 Y112.235 E44.53589
G1 X145.817 Y117.688 E44.7184
G1 X146.993 Y124.863 E44.96059
G1 X147.036 Y125.39 E44.9782
G1 X147.035 Y129.691 E45.12147
G1 X146.995 Y130.199 E45.13844
G1 X146.876 Y130.694 E45.1554
G1 X146.681 Y131.165 E45.17238
G1 X146.415 Y131.599 E45.18934
G1 X146.084 Y131.987 E45.20633
G1 X145.697 Y132.318 E45.22329
G1 X145.263 Y132.585 E45.24026
G1 X144.792 Y132.78 E45.25724
G1 X144.279 Y132.902 E45.27481
G1 X140.518 Y133.481 E45.40156
G1 X135.107 Y134.571 E45.58543
G1 X132.513 Y135.208 E45.6744
G1 X127.233 Y136.747 E45.8576
G1 X122.063 Y138.577 E46.04028
G1 X117.007 Y140.695 E46.22288
G1 X112.098 Y143.087 E46.40478
G1 X107.324 Y145.756 E46.58697
G1 X102.691 Y148.7 E46.76982
G1 X98.518 Y151.679 E46.94061
G1 X98.081 Y151.942 E46.9576
G1 X97.609 Y152.133 E46.97456
G1 X97.113 Y152.248 E46.99152
G1 X96.635 Y152.284 E47.00749
G1 X56.314 Y152.342 E48.35059
G1 X53.606 Y152.457 E48.44088
G1 X49.524 Y152.729 E48.57715
G1 X49.307 Y152.736 E48.58439
G1 X10.631 Y152.726 E49.8727
G1 X10.123 Y152.686 E49.88967
G1 X9.628 Y152.567 E49.90663
G1 X9.157 Y152.372 E49.92361
G1 X8.723 Y152.106 E49.94057
G1 X8.316 Y151.756 E49.95845
G1 X8.056 Y151.492 E49.97079
G1 X7.728 Y151.103 E49.98774
G1 X7.465 Y150.666 E50.00473
G1 X7.274 Y150.194 E50.02169
G1 X7.148 Y149.621 E50.04123
G1 X6.563 Y145.006 E50.19619
G1 X5.596 Y139.597 E50.37922
G1 X5.007 Y136.962 E50.46916
G1 X4.341 Y134.325 E50.55976
G1 X2.226 Y127.44 E50.79968
G1 X2.115 Y126.943 E50.81664
G1 X2.086 Y126.626 E50.82725
G1 X1.876 Y121.752 E50.98975
G1 X1.874 Y121.525 E50.99731
G1 X2.073 Y114.098 E51.2448
G1 X2.128 Y93.006 E51.94738
G1 X2.136 Y92.785 E51.95475
G1 X2.53 Y87.215 E52.14075
G1 X2.616 Y83.128 E52.27692
G1 X2.648 Y13.33 E54.60192
G1 X2.682 Y12.859 E54.61765
G1 X2.761 Y12.321 E54.63576
G1 X2.875 Y11.824 E54.65275
G1 X2.962 Y11.58 E54.66137
G1 X3.256 Y10.849 E54.68762
G1 X3.482 Y10.393 E54.70457
G1 X3.675 Y10.107 E54.71607
G1 X4.154 Y9.471 E54.74259
G1 X4.491 Y9.089 E54.75956
G1 X4.722 Y8.886 E54.7698
G1 X5.129 Y8.561 E54.78715
G1 X5.649 Y8.222 E54.80783
G1 F600 E53.05783
G0 F2625 X14.559 Y9.881
G0 X14.603 Y9.888
G0 X42.518 Y15.087
G0 X42.562 Y15.094
G0 X43.684 Y15.305
;TYPE:SUPPORT
G1 F600 E54.80783
G1 F900 X45.264 Y15.305 E54.86046
G1 X45.264 Y16.377 E54.89616
G1 X43.684 Y16.377 E54.9488
G1 X43.684 Y15.305 E54.9845
G0 F2625 X45 Y15.505
G1 F900 X45 Y16.177 E55.00689
G1 F600 E53.25689
G0 F2625 X46.384 Y16.208
G0 X46.428 Y16.208
G0 X52.678 Y16.35
G0 X52.722 Y16.35
G0 X53.844 Y16.377
G1 F600 E55.00689
G1 F900 X53.844 Y15.305 E55.0426
G1 X118.084 Y15.305 E57.18245
G1 X118.084 Y16.377 E57.21816
G1 X53.844 Y16.377 E59.35802
G0 F2625 X54.48 Y16.177
G1 F900 X55.645 Y15.504 E59.40284
G0 F2625 X56.25 Y15.505
G1 F900 X56.25 Y16.177 E59.42522
G0 F2625 X56.855 Y15.505
G1 F900 X58.018 Y16.176 E59.46995
G0 F2625 X60 Y16.177
G1 F900 X60 Y15.505 E59.49233
G0 F2625 X61.98 Y16.177
G1 F900 X63.145 Y15.504 E59.53715
G0 F2625 X63.75 Y15.505
G1 F900 X63.75 Y16.177 E59.55953
G0 F2625 X64.355 Y15.505
G1 F900 X65.518 Y16.176 E59.60426
G0 F2625 X67.5 Y16.177
G1 F900 X67.5 Y15.505 E59.62664
G0 F2625 X69.48 Y16.177
G1 F900 X70.645 Y15.504 E59.67146
G0 F2625 X71.25 Y15.505
G1 F900 X71.25 Y16.177 E59.69384
G0 F2625 X71.855 Y15.504
G1 F900 X73.018 Y16.176 E59.73859
G0 F2625 X75 Y16.177
G1 F900 X75 Y15.505 E59.76097
G0 F2625 X76.98 Y16.176
G1 F900 X78.145 Y15.504 E59.80577
G0 F2625 X78.75 Y15.505
G1 F900 X78.75 Y16.177 E59.82815
G0 F2625 X79.356 Y15.505
G1 F900 X80.519 Y16.176 E59.87288
G0 F2625 X82.5 Y16.177
G1 F900 X82.5 Y15.505 E59.89526
G0 F2625 X84.48 Y16.176
G1 F900 X85.645 Y15.504 E59.94006
G0 F2625 X86.25 Y15.505
G1 F900 X86.25 Y16.177 E59.96245
G0 F2625 X86.855 Y15.505
G1 F900 X88.018 Y16.176 E60.00717
G0 F2625 X90 Y16.177
G1 F900 X90 Y15.505 E60.02956
G0 F2625 X91.98 Y16.177
G1 F900 X93.145 Y15.504 E60.07438
G0 F2625 X93.75 Y15.505
G1 F900 X93.75 Y16.177 E60.09676
G0 F2625 X94.355 Y15.505
G1 F900 X95.518 Y16.176 E60.14149
G0 F2625 X97.5 Y16.177
G1 F900 X97.5 Y15.505 E60.16387
G0 F2625 X99.481 Y16.176
G1 F900 X100.646 Y15.504 E60.20867
G0 F2625 X101.25 Y15.505
G1 F900 X101.25 Y16.177 E60.23105
G0 F2625 X101.856 Y15.505
G1 F900 X103.019 Y16.177 E60.2758
G0 F2625 X105 Y16.177
G1 F900 X105 Y15.505 E60.29818
G0 F2625 X106.981 Y16.176
G1 F900 X108.145 Y15.504 E60.34295
G0 F2625 X108.75 Y15.505
G1 F900 X108.75 Y16.177 E60.36534
G0 F2625 X109.356 Y15.505
G1 F900 X110.519 Y16.176 E60.41006
G0 F2625 X112.5 Y16.177
G1 F900 X112.5 Y15.505 E60.43245
G0 F2625 X114.48 Y16.176
G1 F900 X115.645 Y15.504 E60.47725
G0 F2625 X116.25 Y15.505
G1 F900 X116.25 Y16.177 E60.49963
G0 F2625 X116.856 Y15.505
G1 F900 X117.884 Y16.098 E60.53916
G1 F600 E58.78916
G0 F2625 X118.795 Y17.999
G0 X121.886 Y45.962
G1 F600 E60.53916
