;Generated by Cura LulzBot Edition GCodeWriter Version: 3.2.27
;FLAVOR:Marlin
;TIME:19424
;Filament used: 6.90958m
;Layer height: 0.18
;Generated with Cura_SteamEngine 3.2.27
M82 ;absolute extrusion mode
;This G-Code has been generated specifically for the LulzBot Mini with standard extruder
M75 ; Start GLCD Timer
G26 ; clear potential 'probe fail' condition
G21 ; set units to Millimetres
M107 ; disable fans
M420 S0 ; disable leveling matrix
G90 ; absolute positioning
M82 ; set extruder to absolute mode
G92 E0 ; set extruder position to 0
M140 S60 ; start bed heating up
G28 ; home all axes
G0 X0 Y187 Z156 F200 ; move away from endstops
M109 R140 ;
G1 E-30 F75 ; retract filament
M109 R140 ; wait for extruder to reach wiping temp
G1 X45 Y173 F11520 ; move above wiper pad
G1 Z0 F1200 ; push nozzle into wiper
G1 X42 Y173 Z-.5 F4000             ; wiping
G1 X52 Y171 Z-.5 F4000             ; wiping
G1 X42 Y173 Z0 F4000               ; wiping
G1 X52 Y171 F4000                  ; wiping
G1 X42 Y173 F4000                  ; wiping
G1 X52 Y171 F4000                  ; wiping
G1 X42 Y173 F4000                  ; wiping
G1 X52 Y171 F4000                  ; wiping
G1 X57 Y173 F4000                  ; wiping
G1 X77 Y171 F4000                  ; wiping
G1 X57 Y173 F4000                  ; wiping
G1 X77 Y171 F4000                  ; wiping
G1 X57 Y173 F4000                  ; wiping
G1 X87 Y171 F4000                  ; wiping
G1 X77 Y173 F4000                  ; wiping
G1 X97 Y171 F4000                  ; wiping
G1 X77 Y173 F4000                  ; wiping
G1 X97 Y171 F4000                  ; wiping
G1 X77 Y173 F4000                  ; wiping
G1 X97 Y171 F4000                  ; wiping
G1 X107 Y173 F4000                 ; wiping
G1 X97 Y171 F4000                  ; wiping
G1 X107 Y173 F4000                 ; wiping
G1 X97 Y171 F4000                  ; wiping
G1 X107 Y173 F4000                 ; wiping
G1 X112 Y171 Z-0.5 F1000           ; wiping
G1 Z10 ; raise extruder
G28 X0 Y0 ; home X and Y
G0 X0 Y187 F200 ; move away from endstops
M109 R140 ; wait for extruder to reach probe temp
M204 S300 ; set probing acceleration
G29 ; start auto-leveling sequence
M420 S1              ; enable leveling matrix
M425 Z			     ; use measured Z backlash for compensation
M425 Z F0		     ; turn off measured Z backlash compensation. (if activated in the quality settings, this command will automatically be ignored)
M204 S2000 ; restore standard acceleration
G28 X0 Y0 ; re-home to account for build variance of earlier mini builds
G0 X0 Y187 F200 ; move away from endstops
G0 Y152 F4000 ; move in front of wiper pad
G4 S1 ; pause
M400 ; wait for moves to finish
M117 Heating... ; progress indicator message on LCD
M109 R205 ; wait for extruder to reach printing temp
M190 S60 ; wait for bed to reach printing temp
G1 Z2 E0 F75 ; prime tiny bit of filament into the nozzle
M117 Mini Printing... ; progress indicator message on LCD

M221 S100
;LAYER_COUNT:140
;LAYER:0
M107
G0 F2625 X37.98 Y39.879 Z0.425
;TYPE:SKIRT
G1 F900 X38.454 Y39.54 E0.01941
G1 X38.97 Y39.269 E0.03883
G1 X39.518 Y39.071 E0.05824
G1 X40.088 Y38.949 E0.07765
G1 X40.686 Y38.907 E0.09762
G1 X65.983 Y38.908 E0.94027
G1 X66.565 Y38.948 E0.95971
G1 X67.259 Y39.104 E0.9834
G1 X74.268 Y41.31 E1.22816
G1 X79.558 Y42.605 E1.40958
G1 X82.138 Y43.12 E1.49721
G1 X87.524 Y43.963 E1.67881
G1 X92.933 Y44.497 E1.85986
G1 X95.59 Y44.646 E1.9485
G1 X101.398 Y44.743 E2.142
G1 X101.978 Y44.792 E2.16139
G1 X102.734 Y44.982 E2.18735
G1 X105.118 Y45.819 E2.27152
G1 X110.35 Y47.416 E2.45373
G1 X115.646 Y48.712 E2.63535
G1 X118.232 Y49.228 E2.72319
G1 X123.618 Y50.071 E2.90478
G1 X128.997 Y50.602 E3.08483
G1 X134.435 Y50.83 E3.26613
G1 X143.654 Y50.83 E3.57322
G1 X144.235 Y50.87 E3.59262
G1 X144.806 Y50.989 E3.61205
G1 X145.355 Y51.185 E3.63147
G1 X145.871 Y51.454 E3.65085
G1 X146.347 Y51.792 E3.6703
G1 X146.771 Y52.191 E3.68969
G1 X147.137 Y52.645 E3.70912
G1 X147.437 Y53.144 E3.72851
G1 X147.667 Y53.68 E3.74794
G1 X147.821 Y54.242 E3.76735
G1 X147.904 Y55.08 E3.7954
G1 X147.9 Y131.304 E6.33445
G1 X147.862 Y131.869 E6.35331
G1 X147.765 Y132.592 E6.37761
G1 X147.648 Y133.163 E6.39703
G1 X147.495 Y133.615 E6.41292
G1 X147.194 Y134.362 E6.43975
G1 X146.94 Y134.887 E6.45918
G1 X146.64 Y135.34 E6.47727
G1 X146.169 Y135.962 E6.50326
G1 X145.786 Y136.401 E6.52267
G1 X145.395 Y136.747 E6.54006
G1 X144.767 Y137.237 E6.56659
G1 X144.284 Y137.563 E6.586
G1 X143.81 Y137.8 E6.60366
G1 X143.078 Y138.11 E6.63014
G1 X142.527 Y138.299 E6.64954
G1 X141.996 Y138.407 E6.66759
G1 X141.161 Y138.521 E6.69566
G1 X140.586 Y138.56 E6.71486
G1 X31.404 Y138.559 E10.35175
G1 X30.823 Y138.519 E10.37115
G1 X30.252 Y138.4 E10.39058
G1 X29.703 Y138.204 E10.41
G1 X29.187 Y137.935 E10.42938
G1 X28.711 Y137.597 E10.44883
G1 X28.287 Y137.198 E10.46822
G1 X27.921 Y136.744 E10.48765
G1 X27.621 Y136.245 E10.50704
G1 X27.391 Y135.709 E10.52647
G1 X27.237 Y135.147 E10.54588
G1 X27.181 Y134.785 E10.55808
G1 X26.518 Y128.897 E10.75545
G1 X25.601 Y123.574 E10.93538
G1 X24.375 Y118.271 E11.11668
G1 X23.67 Y115.719 E11.20487
G1 X21.997 Y110.531 E11.38645
G1 X20.044 Y105.474 E11.56703
G1 X17.805 Y100.53 E11.74781
G1 X15.29 Y95.721 E11.92859
G1 X14.069 Y93.594 E12.01028
G1 X13.824 Y93.093 E12.02886
G1 X13.309 Y91.839 E12.07402
G1 X13.125 Y91.286 E12.09343
G1 X13.026 Y90.777 E12.1107
G1 X12.847 Y89.413 E12.15653
G1 X12.811 Y88.86 E12.17499
G1 X12.811 Y68.55 E12.85152
G1 X12.851 Y67.969 E12.87092
G1 X12.97 Y67.398 E12.89035
G1 X13.166 Y66.849 E12.90977
G1 X13.435 Y66.333 E12.92915
G1 X13.773 Y65.857 E12.9486
G1 X14.172 Y65.433 E12.96799
G1 X14.44 Y65.205 E12.97971
G1 X16.933 Y63.252 E13.0852
G1 X21.065 Y59.713 E13.26642
G1 X24.989 Y55.951 E13.4475
G1 X26.833 Y54.025 E13.53632
G1 X30.425 Y49.941 E13.71749
G1 X33.762 Y45.683 E13.89769
G1 X37.193 Y40.735 E14.09826
G1 X37.558 Y40.28 E14.11769
G1 X37.98 Y39.879 E14.13708
G0 F2625 X38.35 Y40.223
G1 F900 X38.802 Y39.914 E14.15532
G1 X39.294 Y39.675 E14.17354
G1 X39.816 Y39.509 E14.19179
G1 X40.356 Y39.422 E14.21001
G1 X40.686 Y39.407 E14.22101
G1 X65.983 Y39.408 E15.06366
G1 X66.529 Y39.448 E15.0819
G1 X67.109 Y39.581 E15.10172
G1 X74.139 Y41.793 E15.34721
G1 X79.457 Y43.095 E15.52959
G1 X82.037 Y43.611 E15.61723
G1 X87.448 Y44.457 E15.79966
G1 X92.903 Y44.996 E15.98225
G1 X95.579 Y45.146 E16.07153
G1 X101.389 Y45.243 E16.26509
G1 X101.934 Y45.292 E16.28332
G1 X102.569 Y45.454 E16.30515
G1 X104.958 Y46.292 E16.38948
G1 X110.211 Y47.896 E16.57244
G1 X115.567 Y49.207 E16.75611
G1 X118.131 Y49.719 E16.84321
G1 X123.542 Y50.565 E17.02564
G1 X128.963 Y51.1 E17.20709
G1 X134.437 Y51.33 E17.38959
G1 X143.654 Y51.33 E17.69662
G1 X144.2 Y51.37 E17.71485
G1 X144.734 Y51.489 E17.73308
G1 X145.245 Y51.684 E17.75129
G1 X145.723 Y51.952 E17.76955
G1 X146.156 Y52.287 E17.78779
G1 X146.536 Y52.681 E17.80602
G1 X146.855 Y53.126 E17.82426
G1 X147.105 Y53.613 E17.84249
G1 X147.282 Y54.131 E17.86073
G1 X147.381 Y54.669 E17.87895
G1 X147.404 Y55.08 E17.89266
G1 X147.4 Y131.304 E20.43171
G1 X147.367 Y131.803 E20.44837
G1 X147.27 Y132.526 E20.47267
G1 X147.158 Y133.061 E20.49087
G1 X147.031 Y133.429 E20.50384
G1 X146.73 Y134.176 E20.53067
G1 X146.489 Y134.667 E20.54889
G1 X146.242 Y135.038 E20.56373
G1 X145.771 Y135.66 E20.58972
G1 X145.409 Y136.071 E20.60797
G1 X145.088 Y136.353 E20.6222
G1 X144.46 Y136.843 E20.64873
G1 X144.005 Y137.147 E20.66696
G1 X143.615 Y137.339 E20.68144
G1 X142.883 Y137.649 E20.70792
G1 X142.365 Y137.825 E20.72614
G1 X141.928 Y137.912 E20.74099
G1 X141.093 Y138.026 E20.76906
G1 X140.586 Y138.06 E20.78598
G1 X31.404 Y138.059 E24.42288
G1 X30.858 Y138.019 E24.44111
G1 X30.324 Y137.9 E24.45934
G1 X29.813 Y137.705 E24.47756
G1 X29.335 Y137.437 E24.49581
G1 X28.902 Y137.102 E24.51405
G1 X28.522 Y136.708 E24.53228
G1 X28.203 Y136.263 E24.55052
G1 X27.953 Y135.776 E24.56875
G1 X27.776 Y135.258 E24.58699
G1 X27.678 Y134.729 E24.60491
G1 X27.015 Y128.841 E24.80228
G1 X26.089 Y123.468 E24.98389
G1 X24.863 Y118.164 E25.16523
G1 X24.142 Y115.554 E25.25543
G1 X22.466 Y110.356 E25.43735
G1 X20.506 Y105.282 E25.61854
G1 X18.26 Y100.323 E25.79988
G1 X15.719 Y95.464 E25.98253
G1 X14.503 Y93.345 E26.06391
G1 X14.286 Y92.903 E26.08031
G1 X13.771 Y91.649 E26.12547
G1 X13.601 Y91.128 E26.14372
G1 X13.522 Y90.712 E26.15783
G1 X13.343 Y89.348 E26.20365
G1 X13.311 Y88.86 E26.21994
G1 X13.311 Y68.55 E26.89648
G1 X13.351 Y68.004 E26.91471
G1 X13.47 Y67.47 E26.93294
G1 X13.665 Y66.959 E26.95116
G1 X13.933 Y66.481 E26.96941
G1 X14.268 Y66.048 E26.98765
G1 X14.748 Y65.598 E27.00956
G1 X17.262 Y63.628 E27.11595
G1 X21.392 Y60.092 E27.29706
G1 X25.355 Y56.292 E27.47995
G1 X27.193 Y54.372 E27.56849
G1 X30.815 Y50.255 E27.75114
G1 X34.167 Y45.977 E27.93218
G1 X37.604 Y41.02 E28.13311
G1 X37.948 Y40.594 E28.15135
G1 X38.35 Y40.223 E28.16957
G0 F2625 X38.717 Y40.571
G1 F900 X39.146 Y40.295 E28.18656
G1 X39.612 Y40.09 E28.20352
G1 X40.105 Y39.959 E28.22051
G1 X40.686 Y39.907 E28.23994
G1 X65.983 Y39.908 E29.08259
G1 X66.491 Y39.948 E29.09957
G1 X66.959 Y40.058 E29.11558
G1 X73.995 Y42.272 E29.36128
G1 X79.356 Y43.585 E29.54514
G1 X81.956 Y44.104 E29.63345
G1 X87.395 Y44.955 E29.81683
G1 X92.847 Y45.493 E29.99932
G1 X95.543 Y45.645 E30.08927
G1 X101.381 Y45.742 E30.28376
G1 X101.888 Y45.791 E30.30073
G1 X102.403 Y45.925 E30.31846
G1 X104.833 Y46.778 E30.40424
G1 X110.071 Y48.377 E30.58667
G1 X115.444 Y49.692 E30.77093
G1 X118.05 Y50.212 E30.85945
G1 X123.489 Y51.063 E31.04283
G1 X128.926 Y51.6 E31.22482
G1 X134.416 Y51.83 E31.40785
G1 X143.654 Y51.83 E31.71557
G1 X144.162 Y51.87 E31.73255
G1 X144.657 Y51.989 E31.7495
G1 X145.128 Y52.184 E31.76648
G1 X145.563 Y52.45 E31.78347
G1 X145.95 Y52.78 E31.80041
G1 X146.282 Y53.167 E31.8174
G1 X146.548 Y53.602 E31.83438
G1 X146.744 Y54.072 E31.85134
G1 X146.863 Y54.567 E31.8683
G1 X146.904 Y55.08 E31.88544
G1 X146.9 Y131.304 E34.42449
G1 X146.871 Y131.736 E34.43891
G1 X146.774 Y132.459 E34.46321
G1 X146.667 Y132.957 E34.48018
G1 X146.567 Y133.242 E34.49024
G1 X146.266 Y133.989 E34.51707
G1 X146.04 Y134.445 E34.53402
G1 X145.843 Y134.736 E34.54573
G1 X145.372 Y135.358 E34.57172
G1 X145.033 Y135.739 E34.5887
G1 X144.78 Y135.958 E34.59985
G1 X144.152 Y136.448 E34.62638
G1 X143.727 Y136.729 E34.64336
G1 X143.42 Y136.879 E34.65474
G1 X142.688 Y137.189 E34.68122
G1 X142.205 Y137.35 E34.69818
G1 X141.861 Y137.416 E34.70984
G1 X141.026 Y137.53 E34.73792
G1 X140.586 Y137.56 E34.75261
G1 X31.404 Y137.559 E38.3895
G1 X30.896 Y137.519 E38.40647
G1 X30.401 Y137.4 E38.42343
G1 X29.93 Y137.205 E38.44041
G1 X29.495 Y136.939 E38.4574
G1 X29.108 Y136.609 E38.47434
G1 X28.776 Y136.222 E38.49132
G1 X28.51 Y135.787 E38.50831
G1 X28.314 Y135.317 E38.52527
G1 X28.174 Y134.673 E38.54722
G1 X27.507 Y128.754 E38.74563
G1 X26.577 Y123.355 E38.92812
G1 X25.354 Y118.061 E39.10911
G1 X24.621 Y115.412 E39.20067
G1 X22.939 Y110.196 E39.38323
G1 X20.968 Y105.091 E39.56551
G1 X18.705 Y100.094 E39.74824
G1 X16.165 Y95.236 E39.93084
G1 X14.936 Y93.096 E40.01304
G1 X14.749 Y92.713 E40.02724
G1 X14.234 Y91.459 E40.0724
G1 X14.078 Y90.974 E40.08937
G1 X14.018 Y90.647 E40.10044
G1 X13.839 Y89.283 E40.14627
G1 X13.811 Y88.86 E40.16039
G1 X13.811 Y68.55 E40.83692
G1 X13.851 Y68.042 E40.8539
G1 X13.97 Y67.547 E40.87086
G1 X14.165 Y67.076 E40.88784
G1 X14.431 Y66.641 E40.90482
G1 X14.761 Y66.254 E40.92176
G1 X15.057 Y65.992 E40.93493
G1 X17.554 Y64.036 E41.04059
G1 X21.738 Y60.453 E41.22408
G1 X25.708 Y56.645 E41.40732
G1 X27.565 Y54.706 E41.49675
G1 X31.197 Y50.577 E41.67993
G1 X34.57 Y46.274 E41.86205
G1 X38.015 Y41.305 E42.06346
G1 X38.337 Y40.911 E42.08041
G1 X38.717 Y40.571 E42.09739
G1 F600 E40.34739
G1 F480 Z1.425
G0 F2625 X40.644 Y68.257 Z1.425
;TYPE:SUPPORT
G1 F480 Z0.425
G1 F600 E42.09739
G1 F900 X40.941 Y68.402 E42.1084
G1 X41.467 Y68.524 E42.12639
G1 X65.151 Y68.525 E42.91531
G1 X65.699 Y68.415 E42.93393
G1 X65.941 Y68.298 E42.94288
G1 X65.944 Y75.719 E43.19008
G1 X66.443 Y76.218 E43.21359
G1 X73.421 Y76.218 E43.44603
G1 X73.538 Y76.335 E43.45154
G1 X73.538 Y82.351 E43.65193
G1 X73.421 Y82.468 E43.65744
G1 X33.168 Y82.468 E44.99829
G1 X33.051 Y82.351 E45.0038
G1 X33.051 Y76.335 E45.20419
G1 X33.168 Y76.218 E45.20971
G1 X40.145 Y76.218 E45.44211
G1 X40.644 Y75.719 E45.46562
G1 X40.644 Y68.257 E45.71418
G1 F600 E43.96418
G1 F480 Z1.425
G0 F2625 X42 Y68.725 Z1.425
G1 F480 Z0.425
G1 F600 E45.71418
G1 F900 X42 Y82.268 E46.1653
G1 F600 E44.4153
G1 F480 Z1.425
G0 F2625 X40 Y82.268 Z1.425
G1 F480 Z0.425
G1 F600 E46.1653
G1 F900 X40 Y76.418 E46.36017
G0 F2625 X40.646 Y76
G1 F900 X65.941 Y76 E47.20275
G0 F2625 X66 Y76.059
G1 F900 X66 Y82.268 E47.40958
G1 F600 E45.65958
G1 F480 Z1.425
G0 F2625 X68 Y82.268 Z1.425
G1 F480 Z0.425
G1 F600 E47.40958
G1 F900 X68 Y76.418 E47.60444
G1 F600 E45.85444
G1 F480 Z1.425
G0 F2625 X70 Y76.418 Z1.425
G1 F480 Z0.425
G1 F600 E47.60444
G1 F900 X70 Y82.268 E47.79931
G1 F600 E46.04931
G1 F480 Z1.425
G0 F2625 X72 Y82.268 Z1.425
G1 F480 Z0.425
G1 F600 E47.79931
G1 F900 X72 Y76.418 E47.99417
G1 F600 E46.24417
G1 F480 Z1.425
G0 F2625 X73.338 Y78 Z1.425
G1 F480 Z0.425
G1 F600 E47.99417
G1 F900 X33.25 Y78 E49.32952
G1 F600 E47.57952
G1 F480 Z1.425
G0 F2625 X34 Y76.418 Z1.425
G1 F480 Z0.425
G1 F600 E49.32952
G1 F900 X34 Y82.268 E49.52439
G0 F2625 X33.25 Y82
G1 F900 X73.338 Y82 E50.85973
G1 F600 E49.10973
G1 F480 Z1.425
G0 F2625 X73.338 Y80 Z1.425
G1 F480 Z0.425
G1 F600 E50.85973
G1 F900 X33.25 Y80 E52.19508
G1 F600 E50.44508
G1 F480 Z1.425
G0 F2625 X36 Y82.268 Z1.425
G1 F480 Z0.425
G1 F600 E52.19508
G1 F900 X36 Y76.418 E52.38994
G1 F600 E50.63994
G1 F480 Z1.425
G0 F2625 X38 Y76.418 Z1.425
G1 F480 Z0.425
G1 F600 E52.38994
G1 F900 X38 Y82.268 E52.58481
G1 F600 E50.83481
G1 F480 Z1.425
G0 F2625 X44 Y82.268 Z1.425
G1 F480 Z0.425
G1 F600 E52.58481
G1 F900 X44 Y68.725 E53.03593
G1 F600 E51.28593
G1 F480 Z1.425
G0 F2625 X46 Y68.725 Z1.425
G1 F480 Z0.425
G1 F600 E53.03593
G1 F900 X46 Y82.268 E53.48705
G1 F600 E51.73705
G1 F480 Z1.425
G0 F2625 X48 Y82.268 Z1.425
G1 F480 Z0.425
G1 F600 E53.48705
G1 F900 X48 Y68.725 E53.93818
G1 F600 E52.18818
G1 F480 Z1.425
G0 F2625 X50 Y68.725 Z1.425
G1 F480 Z0.425
G1 F600 E53.93818
G1 F900 X50 Y82.268 E54.3893
G1 F600 E52.6393
G1 F480 Z1.425
G0 F2625 X52 Y82.268 Z1.425
G1 F480 Z0.425
G1 F600 E54.3893
G1 F900 X52 Y68.725 E54.84042
G1 F600 E53.09042
G1 F480 Z1.425
G0 F2625 X54 Y68.725 Z1.425
G1 F480 Z0.425
G1 F600 E54.84042
G1 F900 X54 Y82.268 E55.29154
G1 F600 E53.54154
G1 F480 Z1.425
G0 F2625 X56 Y82.268 Z1.425
G1 F480 Z0.425
G1 F600 E55.29154
G1 F900 X56 Y68.725 E55.74266
G1 F600 E53.99266
G1 F480 Z1.425
G0 F2625 X58 Y68.725 Z1.425
G1 F480 Z0.425
G1 F600 E55.74266
G1 F900 X58 Y82.268 E56.19379
G1 F600 E54.44379
G1 F480 Z1.425
G0 F2625 X60 Y82.268 Z1.425
G1 F480 Z0.425
G1 F600 E56.19379
G1 F900 X60 Y68.725 E56.64491
G1 F600 E54.89491
G1 F480 Z1.425
G0 F2625 X62 Y68.725 Z1.425
G1 F480 Z0.425
G1 F600 E56.64491
G1 F900 X62 Y82.268 E57.09603
G1 F600 E55.34603
G1 F480 Z1.425
G0 F2625 X64 Y82.268 Z1.425
G1 F480 Z0.425
G1 F600 E57.09603
G1 F900 X64 Y68.725 E57.54715
G1 F600 E55.79715
G1 F480 Z1.425
G0 F2625 X65.742 Y70 Z1.425
G1 F480 Z0.425
G1 F600 E57.54715
G1 F900 X40.843 Y70 E58.37655
G1 F600 E56.62655
G1 F480 Z1.425
G0 F2625 X40.843 Y72 Z1.425
G1 F480 Z0.425
G1 F600 E58.37655
G1 F900 X65.743 Y72 E59.20598
G1 F600 E57.45598
G1 F480 Z1.425
G0 F2625 X65.744 Y74 Z1.425
G1 F480 Z0.425
G1 F600 E59.20598
G1 F900 X40.843 Y74 E60.03544
G1 F600 E58.28544
G1 F480 Z1.425
G0 F2625 X70.963 Y59.175 Z1.425
G1 F480 Z0.425
G1 F600 E60.03544
G1 F900 X70.963 Y49.349 E60.36274
G1 X71.08 Y49.232 E60.36826
G1 X76.969 Y49.232 E60.56442
G1 X77.086 Y49.349 E60.56993
G1 X77.086 Y52.571 E60.67726
G1 X75.86 Y53.798 E60.73504
G1 X75.732 Y54.436 E60.75671
G1 X76.585 Y56.491 E60.83083
G1 X77.125 Y56.852 E60.85246
G1 X82.498 Y56.852 E61.03144
G1 X82.498 Y67.752 E61.39452
G1 X74.773 Y67.752 E61.65185
G1 X74.773 Y59.791 E61.91703
G1 X74.274 Y59.292 E61.94054
G1 X71.08 Y59.292 E62.04693
G1 X70.963 Y59.175 E62.05244
G1 F600 E60.30244
G1 F480 Z1.425
G0 F2625 X72 Y59.092 Z1.425
G1 F480 Z0.425
G1 F600 E62.05244
