;Generated by Cura LulzBot Edition GCodeWriter Version: 3.2.27
;FLAVOR:Marlin
;TIME:8980
;Filament used: 6.79467m
;Layer height: 0.38
;Generated with Cura_SteamEngine 3.2.27
M82 ;absolute extrusion mode
;This G-Code has been generated specifically for the LulzBot Mini with standard extruder
M75 ; Start GLCD Timer
G26 ; clear potential 'probe fail' condition
G21 ; set units to Millimetres
M107 ; disable fans
M420 S0 ; disable leveling matrix
G90 ; absolute positioning
M82 ; set extruder to absolute mode
G92 E0 ; set extruder position to 0
M140 S60 ; start bed heating up
G28 ; home all axes
G0 X0 Y187 Z156 F200 ; move away from endstops
M109 R140 ;
G1 E-30 F75 ; retract filament
M109 R140 ; wait for extruder to reach wiping temp
G1 X45 Y173 F11520 ; move above wiper pad
G1 Z0 F1200 ; push nozzle into wiper
G1 X42 Y173 Z-.5 F4000             ; wiping
G1 X52 Y171 Z-.5 F4000             ; wiping
G1 X42 Y173 Z0 F4000               ; wiping
G1 X52 Y171 F4000                  ; wiping
G1 X42 Y173 F4000                  ; wiping
G1 X52 Y171 F4000                  ; wiping
G1 X42 Y173 F4000                  ; wiping
G1 X52 Y171 F4000                  ; wiping
G1 X57 Y173 F4000                  ; wiping
G1 X77 Y171 F4000                  ; wiping
G1 X57 Y173 F4000                  ; wiping
G1 X77 Y171 F4000                  ; wiping
G1 X57 Y173 F4000                  ; wiping
G1 X87 Y171 F4000                  ; wiping
G1 X77 Y173 F4000                  ; wiping
G1 X97 Y171 F4000                  ; wiping
G1 X77 Y173 F4000                  ; wiping
G1 X97 Y171 F4000                  ; wiping
G1 X77 Y173 F4000                  ; wiping
G1 X97 Y171 F4000                  ; wiping
G1 X107 Y173 F4000                 ; wiping
G1 X97 Y171 F4000                  ; wiping
G1 X107 Y173 F4000                 ; wiping
G1 X97 Y171 F4000                  ; wiping
G1 X107 Y173 F4000                 ; wiping
G1 X112 Y171 Z-0.5 F1000           ; wiping
G1 Z10 ; raise extruder
G28 X0 Y0 ; home X and Y
G0 X0 Y187 F200 ; move away from endstops
M109 R140 ; wait for extruder to reach probe temp
M204 S300 ; set probing acceleration
G29 ; start auto-leveling sequence
M420 S1              ; enable leveling matrix
M425 Z			     ; use measured Z backlash for compensation
M425 Z F0		     ; turn off measured Z backlash compensation. (if activated in the quality settings, this command will automatically be ignored)
M204 S2000 ; restore standard acceleration
G28 X0 Y0 ; re-home to account for build variance of earlier mini builds
G0 X0 Y187 F200 ; move away from endstops
G0 Y152 F4000 ; move in front of wiper pad
G4 S1 ; pause
M400 ; wait for moves to finish
M117 Heating... ; progress indicator message on LCD
M109 R205 ; wait for extruder to reach printing temp
M190 S60 ; wait for bed to reach printing temp
G1 Z2 E0 F75 ; prime tiny bit of filament into the nozzle
M117 Mini Printing... ; progress indicator message on LCD

M221 S100
;LAYER_COUNT:67
;LAYER:0
M107
G0 F2625 X48.519 Y43.889 Z0.425
;TYPE:SKIRT
G1 F900 X48.932 Y43.478 E0.01941
G1 X49.398 Y43.128 E0.03882
G1 X49.907 Y42.844 E0.05824
G1 X50.45 Y42.633 E0.07764
G1 X51.017 Y42.499 E0.09705
G1 X51.714 Y42.441 E0.12035
G1 X77.103 Y42.442 E0.96606
G1 X77.685 Y42.482 E0.9855
G1 X78.33 Y42.623 E1.00749
G1 X82.882 Y43.995 E1.16586
G1 X88.21 Y45.302 E1.3486
G1 X90.829 Y45.83 E1.43759
G1 X93.441 Y46.277 E1.52586
G1 X98.869 Y46.972 E1.70815
G1 X104.266 Y47.357 E1.88838
G1 X109.461 Y47.439 E2.06145
G1 X116.513 Y47.434 E2.29635
G1 X117.094 Y47.474 E2.31575
G1 X117.665 Y47.592 E2.33517
G1 X118.214 Y47.788 E2.35459
G1 X118.731 Y48.057 E2.37401
G1 X118.979 Y48.221 E2.38391
G1 X120.741 Y49.474 E2.45593
G1 X125.307 Y52.462 E2.6377
G1 X129.995 Y55.164 E2.81794
G1 X134.833 Y57.6 E2.99837
G1 X139.797 Y59.757 E3.17866
G1 X143.999 Y61.337 E3.32819
G1 X144.529 Y61.579 E3.3476
G1 X145.021 Y61.891 E3.36701
G1 X145.466 Y62.268 E3.38644
G1 X145.855 Y62.702 E3.40585
G1 X146.181 Y63.185 E3.42526
G1 X146.438 Y63.708 E3.44467
G1 X146.62 Y64.262 E3.4641
G1 X146.726 Y64.835 E3.48351
G1 X146.753 Y65.315 E3.49952
G1 X146.749 Y141.542 E6.03867
G1 X146.712 Y142.098 E6.05723
G1 X146.616 Y142.825 E6.08166
G1 X146.501 Y143.397 E6.10109
G1 X146.342 Y143.864 E6.11753
G1 X146.046 Y144.595 E6.1438
G1 X145.791 Y145.119 E6.16321
G1 X145.504 Y145.554 E6.18057
G1 X145.028 Y146.187 E6.20695
G1 X144.646 Y146.628 E6.22638
G1 X144.244 Y146.985 E6.24429
G1 X143.613 Y147.477 E6.27095
G1 X143.13 Y147.803 E6.29036
G1 X142.659 Y148.038 E6.30789
G1 X141.935 Y148.345 E6.33409
G1 X141.384 Y148.535 E6.3535
G1 X140.693 Y148.661 E6.3769
G1 X139.436 Y148.785 E6.41897
G1 X139.018 Y148.806 E6.43291
G1 X30.252 Y148.776 E10.05595
G1 X29.67 Y148.736 E10.07538
G1 X29.1 Y148.617 E10.09478
G1 X28.551 Y148.42 E10.1142
G1 X28.035 Y148.151 E10.13359
G1 X27.56 Y147.814 E10.15299
G1 X27.135 Y147.414 E10.17243
G1 X26.769 Y146.96 E10.19185
G1 X26.469 Y146.461 E10.21125
G1 X26.24 Y145.925 E10.23066
G1 X26.086 Y145.363 E10.25008
G1 X26.007 Y144.709 E10.27202
G1 X25.798 Y139.861 E10.43366
G1 X25.796 Y139.564 E10.44355
G1 X25.994 Y132.182 E10.68954
G1 X25.954 Y109.694 E11.43862
G1 X25.648 Y104.292 E11.61885
G1 X25.033 Y98.878 E11.80035
G1 X24.231 Y93.662 E11.97614
G1 X24.182 Y93.016 E11.99772
G1 X24.182 Y72.706 E12.67426
G1 X24.222 Y72.125 E12.69366
G1 X24.341 Y71.554 E12.71308
G1 X24.537 Y71.005 E12.7325
G1 X24.806 Y70.489 E12.75189
G1 X25.144 Y70.013 E12.77133
G1 X25.732 Y69.424 E12.79906
G1 X28.81 Y66.891 E12.93184
G1 X32.885 Y63.213 E13.11469
G1 X34.755 Y61.377 E13.20199
G1 X38.486 Y57.386 E13.38397
G1 X41.961 Y53.219 E13.56471
G1 X45.172 Y48.893 E13.74417
G1 X48.165 Y44.352 E13.92533
G1 X48.519 Y43.889 E13.94474
G0 F2625 X48.917 Y44.194
G1 F900 X49.31 Y43.813 E13.96298
G1 X49.754 Y43.494 E13.98119
G1 X50.241 Y43.242 E13.99945
G1 X50.758 Y43.065 E14.01766
G1 X51.297 Y42.964 E14.03592
G1 X51.714 Y42.941 E14.04984
G1 X77.103 Y42.942 E14.89555
G1 X77.649 Y42.982 E14.91379
G1 X78.185 Y43.102 E14.93208
G1 X82.748 Y44.477 E15.09083
G1 X88.09 Y45.788 E15.27406
G1 X90.75 Y46.324 E15.36444
G1 X93.361 Y46.771 E15.45268
G1 X98.806 Y47.468 E15.63554
G1 X104.241 Y47.856 E15.81704
G1 X109.514 Y47.939 E15.99271
G1 X116.513 Y47.934 E16.22584
G1 X117.059 Y47.974 E16.24408
G1 X117.594 Y48.092 E16.26233
G1 X118.105 Y48.287 E16.28055
G1 X118.689 Y48.628 E16.30308
G1 X120.448 Y49.879 E16.37498
G1 X125.048 Y52.89 E16.55811
G1 X129.759 Y55.605 E16.73923
G1 X134.639 Y58.061 E16.92121
G1 X139.596 Y60.215 E17.10125
G1 X143.823 Y61.805 E17.25168
G1 X144.32 Y62.035 E17.26992
G1 X144.778 Y62.334 E17.28814
G1 X145.188 Y62.697 E17.30638
G1 X145.54 Y63.116 E17.32461
G1 X145.828 Y63.581 E17.34283
G1 X146.045 Y64.084 E17.36108
G1 X146.187 Y64.613 E17.37932
G1 X146.253 Y65.315 E17.40281
G1 X146.249 Y141.542 E19.94196
G1 X146.217 Y142.033 E19.95835
G1 X146.121 Y142.76 E19.98278
G1 X146.01 Y143.296 E20.00101
G1 X145.879 Y143.676 E20.0144
G1 X145.583 Y144.407 E20.04067
G1 X145.341 Y144.898 E20.0589
G1 X145.104 Y145.254 E20.07315
G1 X144.628 Y145.887 E20.09953
G1 X144.268 Y146.299 E20.11776
G1 X143.937 Y146.59 E20.13244
G1 X143.306 Y147.082 E20.15909
G1 X142.851 Y147.386 E20.17732
G1 X142.464 Y147.577 E20.19169
G1 X141.74 Y147.884 E20.21789
G1 X141.222 Y148.061 E20.23612
G1 X140.644 Y148.164 E20.25568
G1 X139.387 Y148.288 E20.29775
G1 X139.018 Y148.306 E20.31006
G1 X30.252 Y148.276 E23.93309
G1 X29.706 Y148.236 E23.95133
G1 X29.172 Y148.117 E23.96955
G1 X28.661 Y147.921 E23.98779
G1 X28.183 Y147.653 E24.00604
G1 X27.75 Y147.319 E24.02426
G1 X27.37 Y146.924 E24.04251
G1 X27.052 Y146.479 E24.06073
G1 X26.802 Y145.992 E24.07897
G1 X26.625 Y145.474 E24.0972
G1 X26.506 Y144.688 E24.12368
G1 X26.297 Y139.84 E24.28532
G1 X26.295 Y139.577 E24.29408
G1 X26.494 Y132.159 E24.54127
G1 X26.454 Y109.683 E25.28995
G1 X26.146 Y104.244 E25.47142
G1 X25.527 Y98.795 E25.65409
G1 X24.726 Y93.586 E25.82965
G1 X24.682 Y93.016 E25.84869
G1 X24.682 Y72.706 E26.52522
G1 X24.722 Y72.16 E26.54346
G1 X24.841 Y71.626 E26.56168
G1 X25.036 Y71.115 E26.5799
G1 X25.304 Y70.637 E26.59816
G1 X25.639 Y70.204 E26.61639
G1 X26.049 Y69.81 E26.63533
G1 X29.143 Y67.264 E26.7688
G1 X33.217 Y63.587 E26.95161
G1 X35.129 Y61.709 E27.04088
G1 X38.856 Y57.722 E27.22268
G1 X42.351 Y53.532 E27.40443
G1 X45.59 Y49.169 E27.58544
G1 X48.583 Y44.627 E27.76663
G1 X48.917 Y44.194 E27.78484
G0 F2625 X49.313 Y44.5
G1 F900 X49.685 Y44.152 E27.80181
G1 X50.107 Y43.866 E27.81879
G1 X50.568 Y43.65 E27.83575
G1 X51.057 Y43.508 E27.85271
G1 X51.714 Y43.441 E27.87471
G1 X77.103 Y43.442 E28.72043
G1 X77.611 Y43.482 E28.7374
G1 X78.041 Y43.58 E28.75209
G1 X82.638 Y44.965 E28.91202
G1 X87.966 Y46.273 E29.09477
G1 X90.672 Y46.818 E29.18671
G1 X93.287 Y47.265 E29.27508
G1 X98.76 Y47.967 E29.45888
G1 X104.215 Y48.355 E29.64105
G1 X109.507 Y48.439 E29.81735
G1 X116.514 Y48.434 E30.05076
G1 X117.022 Y48.474 E30.06773
G1 X117.517 Y48.592 E30.08468
G1 X117.988 Y48.787 E30.10166
G1 X118.4 Y49.036 E30.1177
G1 X120.18 Y50.302 E30.19046
G1 X124.777 Y53.31 E30.37345
G1 X129.528 Y56.049 E30.55613
G1 X134.41 Y58.506 E30.73818
G1 X139.421 Y60.683 E30.92017
G1 X143.647 Y62.273 E31.07058
G1 X144.108 Y62.489 E31.08753
G1 X144.53 Y62.775 E31.10452
G1 X144.902 Y63.123 E31.12148
G1 X145.216 Y63.525 E31.13848
G1 X145.462 Y63.971 E31.15544
G1 X145.636 Y64.45 E31.17242
G1 X145.732 Y64.95 E31.18938
G1 X145.753 Y65.315 E31.20156
G1 X145.749 Y141.542 E33.7407
G1 X145.721 Y141.967 E33.75489
G1 X145.625 Y142.694 E33.77932
G1 X145.519 Y143.193 E33.79631
G1 X145.415 Y143.489 E33.80676
G1 X145.119 Y144.22 E33.83303
G1 X144.892 Y144.676 E33.85
G1 X144.705 Y144.953 E33.86113
G1 X144.229 Y145.586 E33.88751
G1 X143.891 Y145.968 E33.90451
G1 X143.629 Y146.196 E33.91607
G1 X142.998 Y146.688 E33.94273
G1 X142.573 Y146.969 E33.9597
G1 X142.269 Y147.117 E33.97096
G1 X141.545 Y147.424 E33.99716
G1 X141.062 Y147.586 E34.01413
G1 X140.595 Y147.666 E34.02991
G1 X139.338 Y147.79 E34.07198
G1 X139.018 Y147.806 E34.08266
G1 X30.252 Y147.776 E37.70569
G1 X29.744 Y147.736 E37.72267
G1 X29.249 Y147.617 E37.73962
G1 X28.778 Y147.422 E37.7566
G1 X28.344 Y147.156 E37.77356
G1 X27.956 Y146.825 E37.79055
G1 X27.625 Y146.438 E37.80751
G1 X27.358 Y146.004 E37.82449
G1 X27.163 Y145.533 E37.84147
G1 X27.044 Y145.038 E37.85842
G1 X27.006 Y144.666 E37.87088
G1 X26.797 Y139.818 E38.03252
G1 X26.795 Y139.591 E38.04008
G1 X26.994 Y132.172 E38.2873
G1 X26.954 Y109.673 E39.03675
G1 X26.644 Y104.195 E39.21952
G1 X26.024 Y98.737 E39.40249
G1 X25.22 Y93.51 E39.57865
G1 X25.182 Y93.016 E39.59516
G1 X25.182 Y72.706 E40.27169
G1 X25.222 Y72.198 E40.28867
G1 X25.341 Y71.703 E40.30562
G1 X25.536 Y71.232 E40.3226
G1 X25.802 Y70.797 E40.33959
G1 X26.132 Y70.41 E40.35653
G1 X26.367 Y70.196 E40.36712
G1 X29.465 Y67.647 E40.50075
G1 X33.573 Y63.939 E40.68509
G1 X35.48 Y62.066 E40.77413
G1 X39.227 Y58.058 E40.9569
G1 X42.741 Y53.844 E41.13967
G1 X46.004 Y49.449 E41.322
G1 X49 Y44.903 E41.50336
G1 X49.313 Y44.5 E41.52036
G0 F2625 X49.957 Y79.752
;TYPE:SUPPORT
G1 F900 X49.957 Y86.002 E41.72855
G1 X44.28 Y86.002 E41.91765
G1 X44.163 Y85.885 E41.92316
G1 X44.163 Y79.869 E42.12356
G1 X44.28 Y79.752 E42.12907
G1 X49.957 Y79.752 E42.31817
G0 F2625 X49.756 Y80
G1 F900 X44.362 Y80 E42.49785
G0 F2625 X46 Y79.952
G1 F900 X46 Y85.802 E42.69271
G0 F2625 X48 Y85.802
G1 F900 X48 Y79.952 E42.88758
G0 F2625 X49.756 Y82
G1 F900 X44.362 Y82 E43.06725
G0 F2625 X44.362 Y84
G1 F900 X49.756 Y84 E43.24693
G0 F2625 X35.098 Y86.03
G1 F900 X33.982 Y86.03 E43.2841
G1 X33.982 Y80.698 E43.46172
G1 X35.098 Y80.698 E43.49889
G1 X35.098 Y86.03 E43.6765
G0 F2625 X34.897 Y84
G1 F900 X34.181 Y84 E43.70035
G0 F2625 X34.181 Y82
G1 F900 X34.897 Y82 E43.7242
G1 F600 E41.9742
G0 F2625 X51.579 Y86.713
G0 X77.235 Y86.713
G0 X77.768 Y86.18
G0 X78.857 Y79.752
G1 F600 E43.7242
G1 F900 X84.533 Y79.752 E43.91327
G1 X84.65 Y79.869 E43.91878
G1 X84.65 Y85.885 E44.11918
G1 X84.533 Y86.002 E44.12469
G1 X78.857 Y86.002 E44.31376
G1 X78.857 Y79.752 E44.52195
G0 F2625 X79.057 Y80
G1 F900 X84.45 Y80 E44.70159
G0 F2625 X84 Y79.952
G1 F900 X84 Y85.802 E44.89646
G0 F2625 X84.45 Y84
G1 F900 X79.057 Y84 E45.0761
G0 F2625 X79.057 Y82
G1 F900 X84.45 Y82 E45.25574
G0 F2625 X82 Y79.952
G1 F900 X82 Y85.802 E45.45061
G0 F2625 X80 Y85.802
G1 F900 X80 Y79.952 E45.64547
G0 F2625 X89.96 Y70.442
G1 F900 X89.96 Y62.481 E45.91066
G1 X89.461 Y61.982 E45.93416
G1 X86.267 Y61.982 E46.04056
G1 X86.15 Y61.865 E46.04607
G1 X86.15 Y52.039 E46.37338
G1 X86.267 Y51.922 E46.37889
G1 X92.156 Y51.922 E46.57505
G1 X92.273 Y52.039 E46.58056
G1 X92.273 Y55.261 E46.68789
G1 X91.047 Y56.488 E46.74567
G1 X90.919 Y57.126 E46.76734
G1 X91.772 Y59.181 E46.84146
G1 X92.312 Y59.542 E46.8631
G1 X97.685 Y59.542 E47.04207
G1 X97.685 Y70.442 E47.40516
G1 X89.96 Y70.442 E47.66248
G0 F2625 X90.16 Y70
G1 F900 X97.485 Y70 E47.90648
G0 F2625 X96 Y70.242
G1 F900 X96 Y59.742 E48.25624
G0 F2625 X97.485 Y60
G1 F900 X86.35 Y60 E48.62715
G0 F2625 X86.35 Y58
G1 F900 X91.066 Y58 E48.78424
G0 F2625 X92 Y59.574
G1 F900 X92 Y70.242 E49.13959
G0 F2625 X94 Y70.242
G1 F900 X94 Y59.742 E49.48935
G0 F2625 X97.485 Y62
G1 F900 X89.764 Y62 E49.74654
G0 F2625 X90 Y62.237
G1 F900 X90 Y52.122 E50.08348
G0 F2625 X88 Y52.122
G1 F900 X88 Y61.782 E50.40525
G0 F2625 X90.16 Y64
G1 F900 X97.485 Y64 E50.64925
G0 F2625 X97.485 Y66
G1 F900 X90.16 Y66 E50.89325
G0 F2625 X90.16 Y68
G1 F900 X97.485 Y68 E51.13725
G0 F2625 X91.25 Y56
G1 F900 X86.35 Y56 E51.30047
G0 F2625 X86.35 Y54
G1 F900 X92.073 Y54 E51.4911
G0 F2625 X92 Y55.252
G1 F900 X92 Y52.122 E51.59537
G1 F600 E49.84537
G0 F2625 X99.307 Y51.211
G0 X103.373 Y51.211
G0 X103.906 Y51.744
G0 X104.995 Y59.542
G1 F600 E51.59537
G1 F900 X110.368 Y59.542 E51.77434
G1 X110.908 Y59.181 E51.79598
G1 X111.761 Y57.126 E51.8701
G1 X111.633 Y56.488 E51.89177
G1 X110.407 Y55.261 E51.94955
G1 X110.407 Y52.039 E52.05687
G1 X110.524 Y51.922 E52.06239
G1 X116.413 Y51.922 E52.25855
G1 X116.53 Y52.039 E52.26406
G1 X116.53 Y61.865 E52.59137
G1 X116.413 Y61.982 E52.59688
G1 X113.219 Y61.982 E52.70327
G1 X112.72 Y62.481 E52.72678
G1 X112.72 Y70.442 E52.99197
G1 X104.995 Y70.442 E53.24929
G1 X104.995 Y59.542 E53.61237
G0 F2625 X105.195 Y60
G1 F900 X116.33 Y60 E53.98328
G0 F2625 X116 Y61.782
G1 F900 X116 Y52.122 E54.30506
G0 F2625 X116.33 Y54
G1 F900 X110.607 Y54 E54.4957
G0 F2625 X111.429 Y56
G1 F900 X116.33 Y56 E54.65895
G0 F2625 X116.33 Y58
G1 F900 X111.615 Y58 E54.81601
G0 F2625 X110 Y59.742
G1 F900 X110 Y70.242 E55.16577
G0 F2625 X108 Y70.242
G1 F900 X108 Y59.742 E55.51553
G0 F2625 X106 Y59.742
G1 F900 X106 Y70.242 E55.86528
G0 F2625 X105.195 Y70
G1 F900 X112.52 Y70 E56.10928
G0 F2625 X112 Y70.242
G1 F900 X112 Y52.122 E56.71287
G0 F2625 X114 Y52.122
G1 F900 X114 Y61.782 E57.03464
G0 F2625 X112.916 Y62
G1 F900 X105.195 Y62 E57.29183
G0 F2625 X105.195 Y64
G1 F900 X112.52 Y64 E57.53583
G0 F2625 X112.52 Y66
G1 F900 X105.195 Y66 E57.77983
G0 F2625 X105.195 Y68
G1 F900 X112.52 Y68 E58.02383
G1 F600 E56.27383
G0 F2625 X113.431 Y72.064
G0 X113.431 Y74.86
G0 X107.772 Y110.87
G0 X107.764 Y110.95
G0 X104.822 Y137.52
G0 X104.818 Y137.564
G0 X104.694 Y138.686
G1 F600 E58.02383
G1 F900 X104.694 Y139.758 E58.05954
G1 X103.114 Y139.758 E58.11217
G1 X103.114 Y138.686 E58.14788
G1 X104.694 Y138.686 E58.20051
G0 F2625 X104 Y138.886
G1 F900 X104 Y139.558 E58.22289
G1 F600 E56.47289
G0 F2625 X101.993 Y139.6
G0 X101.949 Y139.6
G0 X95.698 Y139.732
G0 X95.654 Y139.732
G0 X94.534 Y139.758
G1 F600 E58.22289
G1 F900 X30.294 Y139.758 E60.36275
G1 X30.294 Y138.686 E60.39846
G1 X94.534 Y138.686 E62.53832
G1 X94.534 Y139.758 E62.57402
G0 F2625 X94 Y139.558
G1 F900 X94 Y138.886 E62.59641
G0 F2625 X92 Y138.886
G1 F900 X92 Y139.558 E62.61879
G0 F2625 X90 Y139.558
G1 F900 X90 Y138.886 E62.64118
G0 F2625 X88 Y138.886
G1 F900 X88 Y139.558 E62.66356
G0 F2625 X86 Y139.558
G1 F900 X86 Y138.886 E62.68595
G0 F2625 X84 Y138.886
G1 F900 X84 Y139.558 E62.70833
G0 F2625 X82 Y139.558
G1 F900 X82 Y138.886 E62.73072
G0 F2625 X80 Y138.886
G1 F900 X80 Y139.558 E62.7531
G0 F2625 X78 Y139.558
G1 F900 X78 Y138.886 E62.77548
G0 F2625 X76 Y138.886
G1 F900 X76 Y139.558 E62.79787
